X: 169
T: Come West Along The Road
R: reel
M: 4/4
L: 1/8
K:Gmaj
"G"d2BG dGBG|~G2Bd "C"efge|"G"d2BG dGBG|1 "D"ABcd "G"edBc:|2 "D"ABcd "G"edBd||
"G"g2bg egdg|egdg edBd|g2bg egdB|"D"ABcd "G"edBd|
"G"g2bg egdg|egdg edBd|gabg "C"efge|"D"dega "G"bage|]


